Icons/rename_me_android_music_player.svg

<svg viewBox="0 0 48 48" xmlns:xlink="http://www.w3.org/1999/xlink">
 <defs>
  <linearGradient id="0">
   <stop stop-opacity="0"/>
   <stop offset="1"/>
  </linearGradient>
  <linearGradient xlink:href="#0" id="1" gradientUnits="userSpaceOnUse" gradientTransform="translate(4e-7,-48)" y1="47" x2="0" y2="1"/>
  <clipPath id="2">
   <g transform="translate(0,-1004.3622)">
    <rect rx="4" y="1005.36" x="1" height="46" width="46" fill="#1890d0"/>
   </g>
  </clipPath>
  <clipPath id="3">
   <g transform="translate(0,-1004.3622)">
    <rect rx="4" y="1005.36" x="1" height="46" width="46" fill="#1890d0"/>
   </g>
  </clipPath>
 </defs>
 <g>
  <g transform="translate(0,-1004.3622)">
   <path d="m 5,1006.3622 c -2.216,0 -4,1.784 -4,4 l 0,37.25 c 0,2.216 1.784,4 4,4 l 38,0 c 2.216,0 4,-1.784 4,-4 l 0,-37.25 c 0,-2.216 -1.784,-4 -4,-4 l -38,0 z m -4,41.5 0,0.5 c 0,2.216 1.784,4 4,4 l 38,0 c 2.216,0 4,-1.784 4,-4 l 0,-0.5 c 0,2.216 -1.784,4 -4,4 l -38,0 c -2.216,0 -4,-1.784 -4,-4 z" opacity="0.02"/>
   <path d="m 1,1047.6122 0,0.25 c 0,2.216 1.784,4 4,4 l 38,0 c 2.216,0 4,-1.784 4,-4 l 0,-0.25 c 0,2.216 -1.784,4 -4,4 l -38,0 c -2.216,0 -4,-1.784 -4,-4 z" opacity="0.05"/>
   <rect width="46" height="46" x="1" y="1005.61" rx="4" opacity="0.1"/>
  </g>
 </g>
 <g>
  <g transform="translate(0,-1004.3622)">
   <rect rx="4" y="1005.36" x="1" height="46" width="46" fill="#16a3b6"/>
  </g>
 </g>
 <g>
  <rect transform="scale(1,-1)" width="46" height="46" x="1" y="-46.998" rx="4" opacity="0.1" fill="url(#1)"/>
 </g>
 <g>
  <g clip-path="url(#2)">
   <g opacity="0.1">
    <g>
     <path d="M 24.683594 11.648438 C 24.308594 12.949219 24.042969 13.820312 24 15 C 23.953125 19.382812 24.117188 23.617188 24 28 C 23.992188 29.4375 23 29 22 29 C 20 29 18.285156 29.425781 16.949219 30.859375 C 15.90625 32 15.429688 33.804688 16.636719 35 C 17.707031 36.042969 19.359375 36.234375 20.773438 36 C 22.289062 35.660156 23.695312 35.050781 24.832031 34.003906 C 25.714844 33.203125 25.890625 32.015625 25.925781 30.832031 C 25.980469 29.191406 25.902344 27.542969 26.023438 25.910156 C 26.019531 24.714844 25.875 22.882812 27.328125 23.445312 C 28.351562 24.164062 29.261719 25.125 29.882812 26.21875 C 30.445312 27.457031 30.882812 28.824219 30.683594 30.199219 C 30.554688 31.292969 31.765625 30.992188 31.726562 30.125 C 32.390625 28.15625 31.847656 25.914062 30.515625 24.355469 C 29.140625 22.449219 27.125 21.011719 26.191406 18.792969 C 25.570312 17.453125 27.054688 16.621094 28.023438 17.707031 C 29.03125 18.691406 30.058594 19.75 30.394531 21.167969 C 30.769531 22.144531 30.847656 23.199219 30.753906 24.234375 C 31.292969 25.617188 32.003906 23.738281 31.996094 23.050781 C 32.316406 21.246094 31.644531 19.375 30.460938 18.011719 C 28 15.554688 27 13 24.683594 11.648438 Z M 24.683594 11.648438 " fill-rule="evenodd"/>
    </g>
   </g>
  </g>
 </g>
 <g>
  <g clip-path="url(#3)">
   <g transform="translate(0,-1)">
    <g>
     <path d="M 24.683594 11.648438 C 24.308594 12.949219 24.042969 13.820312 24 15 C 23.953125 19.382812 24.117188 23.617188 24 28 C 23.992188 29.4375 23 29 22 29 C 20 29 18.285156 29.425781 16.949219 30.859375 C 15.90625 32 15.429688 33.804688 16.636719 35 C 17.707031 36.042969 19.359375 36.234375 20.773438 36 C 22.289062 35.660156 23.695312 35.050781 24.832031 34.003906 C 25.714844 33.203125 25.890625 32.015625 25.925781 30.832031 C 25.980469 29.191406 25.902344 27.542969 26.023438 25.910156 C 26.019531 24.714844 25.875 22.882812 27.328125 23.445312 C 28.351562 24.164062 29.261719 25.125 29.882812 26.21875 C 30.445312 27.457031 30.882812 28.824219 30.683594 30.199219 C 30.554688 31.292969 31.765625 30.992188 31.726562 30.125 C 32.390625 28.15625 31.847656 25.914062 30.515625 24.355469 C 29.140625 22.449219 27.125 21.011719 26.191406 18.792969 C 25.570312 17.453125 27.054688 16.621094 28.023438 17.707031 C 29.03125 18.691406 30.058594 19.75 30.394531 21.167969 C 30.769531 22.144531 30.847656 23.199219 30.753906 24.234375 C 31.292969 25.617188 32.003906 23.738281 31.996094 23.050781 C 32.316406 21.246094 31.644531 19.375 30.460938 18.011719 C 28 15.554688 27 13 24.683594 11.648438 Z M 24.683594 11.648438 " fill="#ffffff" fill-rule="evenodd"/>
    </g>
   </g>
  </g>
 </g>
 <g>
  <g transform="translate(0,-1004.3622)">
   <path d="m 1,1043.3622 0,4 c 0,2.216 1.784,4 4,4 l 38,0 c 2.216,0 4,-1.784 4,-4 l 0,-4 c 0,2.216 -1.784,4 -4,4 l -38,0 c -2.216,0 -4,-1.784 -4,-4 z" opacity="0.1"/>
  </g>
 </g>
</svg>

<svg viewBox="0 0 48 48"><defs><linearGradient id="linearGradient3764" x1="1" x2="47" gradientUnits="userSpaceOnUse" gradientTransform="translate(-48.000001,0.00221467)"><stop stop-color="#1491a4" stop-opacity="1"/><stop offset="1" stop-color="#16a3b6" stop-opacity="1"/></linearGradient><clipPath id="clipPath-269103124"><g transform="translate(0,-1004.3622)"><rect rx="4" y="1005.36" x="1" height="46" width="46" fill="#1890d0"/></g></clipPath><clipPath id="clipPath-281758469"><g transform="translate(0,-1004.3622)"><rect rx="4" y="1005.36" x="1" height="46" width="46" fill="#1890d0"/></g></clipPath></defs><g><path d="m 1 43 l 0 0.25 c 0 2.216 1.784 4 4 4 l 38 0 c 2.216 0 4 -1.784 4 -4 l 0 -0.25 c 0 2.216 -1.784 4 -4 4 l -38 0 c -2.216 0 -4 -1.784 -4 -4 z m 0 0.5 l 0 0.5 c 0 2.216 1.784 4 4 4 l 38 0 c 2.216 0 4 -1.784 4 -4 l 0 -0.5 c 0 2.216 -1.784 4 -4 4 l -38 0 c -2.216 0 -4 -1.784 -4 -4 z" opacity="0.02"/><path d="m 1 43.25 l 0 0.25 c 0 2.216 1.784 4 4 4 l 38 0 c 2.216 0 4 -1.784 4 -4 l 0 -0.25 c 0 2.216 -1.784 4 -4 4 l -38 0 c -2.216 0 -4 -1.784 -4 -4 z" opacity="0.05"/><path d="m 1 43 l 0 0.25 c 0 2.216 1.784 4 4 4 l 38 0 c 2.216 0 4 -1.784 4 -4 l 0 -0.25 c 0 2.216 -1.784 4 -4 4 l -38 0 c -2.216 0 -4 -1.784 -4 -4 z" opacity="0.1"/></g><g><rect width="46" height="46" x="-47" y="1" rx="4" transform="matrix(0,-1,1,0,0,0)" fill="url(#linearGradient3764)" fill-opacity="1"/></g><g><g clip-path="url(#clipPath-269103124)"><g opacity="0.1"><!-- color: #16a3b6 --><g><path d="m 24.684 11.648 c -0.375 1.301 -0.641 2.172 -0.684 3.352 c -0.047 4.383 0.117 8.617 0 13 c -0.008 1.438 -1 1 -2 1 c -2 0 -3.715 0.426 -5.05 1.859 c -1.043 1.141 -1.52 2.945 -0.313 4.141 c 1.07 1.043 2.723 1.234 4.137 1 c 1.516 -0.34 2.922 -0.949 4.059 -1.996 c 0.883 -0.801 1.059 -1.988 1.094 -3.172 c 0.055 -1.641 -0.023 -3.289 0.098 -4.922 c -0.004 -1.195 -0.148 -3.03 1.305 -2.465 c 1.023 0.719 1.934 1.68 2.555 2.773 c 0.563 1.238 1 2.605 0.801 3.98 c -0.129 1.094 1.082 0.793 1.043 -0.074 c 0.664 -1.969 0.121 -4.211 -1.211 -5.77 c -1.375 -1.906 -3.391 -3.344 -4.324 -5.563 c -0.621 -1.34 0.863 -2.172 1.832 -1.086 c 1.01 0.984 2.035 2.043 2.371 3.461 c 0.375 0.977 0.453 2.031 0.359 3.066 c 0.539 1.383 1.25 -0.496 1.242 -1.184 c 0.32 -1.805 -0.352 -3.676 -1.535 -5.04 c -2.461 -2.457 -3.461 -5.01 -5.777 -6.363 m 0 0" fill-rule="evenodd" fill="#000"/></g></g></g></g><g><g clip-path="url(#clipPath-281758469)"><g transform="translate(0,-1)"><!-- color: #16a3b6 --><g><path d="m 24.684 11.648 c -0.375 1.301 -0.641 2.172 -0.684 3.352 c -0.047 4.383 0.117 8.617 0 13 c -0.008 1.438 -1 1 -2 1 c -2 0 -3.715 0.426 -5.05 1.859 c -1.043 1.141 -1.52 2.945 -0.313 4.141 c 1.07 1.043 2.723 1.234 4.137 1 c 1.516 -0.34 2.922 -0.949 4.059 -1.996 c 0.883 -0.801 1.059 -1.988 1.094 -3.172 c 0.055 -1.641 -0.023 -3.289 0.098 -4.922 c -0.004 -1.195 -0.148 -3.03 1.305 -2.465 c 1.023 0.719 1.934 1.68 2.555 2.773 c 0.563 1.238 1 2.605 0.801 3.98 c -0.129 1.094 1.082 0.793 1.043 -0.074 c 0.664 -1.969 0.121 -4.211 -1.211 -5.77 c -1.375 -1.906 -3.391 -3.344 -4.324 -5.563 c -0.621 -1.34 0.863 -2.172 1.832 -1.086 c 1.01 0.984 2.035 2.043 2.371 3.461 c 0.375 0.977 0.453 2.031 0.359 3.066 c 0.539 1.383 1.25 -0.496 1.242 -1.184 c 0.32 -1.805 -0.352 -3.676 -1.535 -5.04 c -2.461 -2.457 -3.461 -5.01 -5.777 -6.363 m 0 0" fill="#fff" fill-rule="evenodd"/></g></g></g></g><g><g transform="translate(0,-1004.3622)"><path d="m 1 1043.36 0 4 c 0 2.216 1.784 4 4 4 l 38 0 c 2.216 0 4 -1.784 4 -4 l 0 -4 c 0 2.216 -1.784 4 -4 4 l -38 0 c -2.216 0 -4 -1.784 -4 -4 z" opacity="0.1"/></g></g></svg>
